X:636
T:Ru Verde
R:Fandangu
C:Tradicional
S:Msica Tradicional Asturiana, (C) Tello & Tito. Asturies, 2001.
S:http://pagina.de/MusTradAst <telloytito@asturies.org>
A:Asturies
O:Teberga
Z:DyC en Teberga
M:3/8
L:1/8
Q:3/8=60
K:F
|:A2 G|F2 F|FEF|G3|c2 B|A2 G|BAG|[1 F3:|[2 F2 F|
|:FAG|FFF|FEF|G2 G|GcB|ABA|GAG|[1 F2 F:|[2 F3|
